!!! OTL: Literature80
!!! Chapter: 5
!!! Section: II
!!! Page: 362
!!! Mode: 
!!! Encoder: ESM
**kern
*staff1
*I"Piano
=1-
*clefG2
*k[]
*C:
*M4/4
2r
4r
8e/L
8f/J
=2
4.g/
8g/
4.g/
8cc\
=3
8cc\L
8b\
8b\J
8r
4r
8cc/L
8g/J
=4
4.a/
8a/
4g/
4f/
=5
8f/L
8e/J
4r
8c/L
8e/
8g/
8cc/J
=6
4cc\
4b\
8c/L
8e/
8g/
8cc/J
=7
4cc\
4b\
8ee\L
8cc\
8b\
8dd\J
=8
!!linebreak:original
8cc/L
8g/
8f/
8a/J
8g/L
8e/
8d/
8f/J
=9
8f/L
8e/J
4r
8ee\L
8cc\
8b\
8dd\J
=10
8cc/L
8g/
8f/
8a/J
8g/L
8e/
8d/
8c/J
=11
2.c/
4r
==
*-
